X:32
T:Castle Down. Roose.0678
B:J.Roose MS, Manchester 1850
Z:Village Music Project 2019 Mike Hicken
M:6/8
L:1/8
Q:3/8=100
K:G
D|G2A B2G|c2A B2G|BdB AGF|E3-E2 D|
G2A B2G|c2A B2G|BdB AGF|D3-D2:|
|:A|B2c d2B|e2c d2B|efg dcB|A3-A2 B/c/|
dcB bag|agf gfe|dcB AGF|G3-G2:|

